Quickit/src/img/icons/video.svg

<svg width="17" height="12" viewBox="0 0 17 12" fill="none" xmlns="http://www.w3.org/2000/svg">
<path fill-rule="evenodd" clip-rule="evenodd" d="M2.5 1.66667C2.03976 1.66667 1.66667 2.03976 1.66667 2.5V9.16667C1.66667 9.6269 2.03976 10 2.5 10H9.16667C9.6269 10 10 9.6269 10 9.16667V2.5C10 2.03976 9.6269 1.66667 9.16667 1.66667H2.5ZM11.6667 2.81854V2.5C11.6667 1.11929 10.5474 0 9.16667 0H2.5C1.11929 0 0 1.11929 0 2.5V9.16667C0 10.5474 1.11929 11.6667 2.5 11.6667H9.16667C10.5474 11.6667 11.6667 10.5474 11.6667 9.16667V8.84833L14.2549 10.1422C14.5089 10.2691 14.7913 10.3291 15.075 10.3163C15.3587 10.3035 15.6344 10.2185 15.876 10.0692C16.1176 9.91994 16.3171 9.71142 16.4554 9.46342C16.5938 9.21543 16.6665 8.93619 16.6667 8.65221V3.0151C16.6665 2.73112 16.5938 2.45143 16.4554 2.20344C16.3171 1.95545 16.1176 1.74693 15.876 1.59766C15.6344 1.4484 15.3587 1.36334 15.075 1.35056C14.7913 1.33779 14.509 1.39771 14.255 1.52465L11.6667 2.81854ZM11.6667 4.68184V6.98502L15 8.65132V3.01554L11.6667 4.68184Z" fill="#205BF1"/>
</svg>

<svg xmlns="http://www.w3.org/2000/svg" width="17" height="12" fill="none" xmlns:v="https://vecta.io/nano"><path fill-rule="evenodd" d="M2.5 1.667c-.46 0-.833.373-.833.833v6.667c0 .46.373.833.833.833h6.667c.46 0 .833-.373.833-.833V2.5c0-.46-.373-.833-.833-.833H2.5zm9.167 1.152V2.5a2.5 2.5 0 0 0-2.5-2.5H2.5A2.5 2.5 0 0 0 0 2.5v6.667a2.5 2.5 0 0 0 2.5 2.5h6.667a2.5 2.5 0 0 0 2.5-2.5v-.318l2.588 1.294c.254.127.536.187.82.174s.559-.098.801-.247.441-.358.579-.606.211-.527.211-.811V3.015a1.67 1.67 0 0 0-.211-.812c-.138-.248-.338-.457-.579-.606s-.517-.234-.801-.247-.566.047-.82.174l-2.588 1.294zm0 1.863v2.303L15 8.651V3.016l-3.333 1.666z" fill="#205bf1"/></svg>
